X: 34151
T: Reel Eugène
R: reel
M: 4/4
K: Bminor
F2|:"Bm"B2Bc dcB2|"Em"e2ef gfeg|"F#7"f2fg fede|"Bm"fbbf b2b2|
"Bm"B2Bc dcB2|"Em"e2ef gfeg|"F#7"f2 f3 edc|1 "Bm"B2B2 "F#7"F2F2:|2 "Bm"B2B2 "A7"A2A2||
K: Dmaj
|:"D"f2fe d2dB|A2df b2f2|"Em"a2ag "A7" e2 ec|Aceg "D"f2 de|
"D"f2fe d2dB|A2df b2f2|"Em"a2ag "A7" eAec|1 "D"fdec d2de:|2 "D"fdec d2F2||

